X: 37555
T: Slow Warsaw
R: waltz
M: 3/4
K: Gmajor
B4 G2|d4 d2|g2 ff a2|g2 g2 f2|e4 B2|G2 G2 A2|G6|d2 B2 d2|
g4 gf|dd cB E2|G2 E2 E2|d4 d2|e2 ge d2|B2 G3 G|dc B2 A2|G6:|
DE F2 D2|DE F2 D2|G3 G E2|B2 B2 G2|d3 e f2|a3 a f2|g6|
ed c2 G2|G4 (3EFG|E4 D2|D6|G2 ED D2|G6:|

